X: 82
T: Cobbs fancy
T: Longways for as many as will.
%R: march
B: Daniel Wright "Wright's Compleat Collection of Celebrated Country Dances" 1740 p.41
S: http://library.efdss.org/cgi-bin/dancebooks.cgi
Z: 2014 John Chambers <jc:trillian.mit.edu>
N: Repeats modified to match the "Each strain twice" instruction.
M: 2/4
L: 1/8
K: Gm
% - - - - - - - - - - - - - - - - - - - - - - - - -
d |\
BG AB | ^FG zf | dB ec | AB zd |\
defg | ed zA | Bcde | d3 :|
|: d |\
dB ec | AB zf | fd ec | =Bc zg |\
gfed | cB zA | BG A^F | G3 :|
% - - - - - - - - - - - - - - - - - - - - - - - - -
%%center Each strain twice
%%begintext align
%% The 1st Man sett to the 2d Wo. then turn her with his
%% Right hand, then your Partner with your left hand,
%% thenyour Partner does the same likewise :| Then
%% Cross over and Figure in Right and Left quite round
%% then the single figure at top, and Right & Left
%% Quite round with the 3d Cu.
%%endtext
% - - - - - - - - - - - - - - - - - - - - - - - - -
%%sep 2 4 300
